!!!COM: Palestrina, Giovanni Perluigi da
!!!OPR: Missa Dum esset summus pontifex
!!!OTL: Agnus I
**kern	**kern	**kern	**kern
*Ibass	*Itenor	*Icalto	*Icant
!Bassus	!Tenor	!Altus	!Cantus
*clefF4	*clefGv2	*clefG2	*clefG2
*k[]	*k[]	*k[]	*k[]
*A:aeo	*A:aeo	*A:aeo	*A:aeo
*M4/2	*M4/2	*M4/2	*M4/2
=1	=1	=1	=1
0r	0r	1.d	0r
.	.	2d	.
=2	=2	=2	=2
0r	0r	1d	0r
.	.	1c	.
=3	=3	=3	=3
0r	0r	2.f	1.a
.	.	4g	.
.	.	4a	.
.	.	4b	.
.	.	[2cc	2a
=4	=4	=4	=4
0r	0r	2cc]	1a
.	.	4b	.
.	.	4a	.
.	.	2b	1g
.	.	[2e	.
=5	=5	=5	=5
0r	1.A	2e]	2.cc
.	.	2f	.
.	.	.	4dd
.	.	4e	4ee
.	.	4d	4ff
.	2A	4c	[2ee
.	.	4B	.
=6	=6	=6	=6
0r	1A	1c	4ee]
.	.	.	4dd
.	.	.	1cc
.	1G	2d	.
.	.	4g	2b
.	.	4f	.
=7	=7	=7	=7
0r	2.c	4e	2.ee
.	.	4d	.
.	.	4c	.
.	4d	4B	4dd
.	4e	2A	2cc
.	4f	.	.
.	[2g	2G	2b
=8	=8	=8	=8
1.D	2g]	1d	1a
.	4f	.	.
.	4e	.	.
.	2.f	2.d	2r
2D	.	.	[2dd
.	4g	4e	.
=9	=9	=9	=9
1D	2a	4f	4dd]
.	.	4g	4ee
.	2f	4a	1ff
.	.	4b	.
1C	1g	2cc	.
.	.	2cc	2ee
=10	=10	=10	=10
1F	2.f	1a	2dd
.	.	.	2cc
.	4e	.	.
1G	1d	1g	[1b-
=11	=11	=11	=11
1F	1f	2r	2b-]
.	.	1cc	2a
1G	2e	.	2.g
.	[2d	2b-	.
.	.	.	4f
=12	=12	=12	=12
0A	2d]	2.a	1e
.	4c#	.	.
.	4B	8g	.
.	.	8f	.
.	1c#	1e	[1a
=13	=13	=13	=13
1r	0d	1f	2a]
.	.	.	2a
1G	.	2.g	2.b-
.	.	8f	8a
.	.	8e	8g
=14	=14	=14	=14
1B-	2r	1d	2f
.	2d	.	2g
[1A	1f	1r	1a
=15	=15	=15	=15
2A]	1e	0r	0r
2G	.	.	.
2F	1d	.	.
2G	.	.	.
=16	=16	=16	=16
2A	2c	0r	0r
4G	2d	.	.
4F	.	.	.
2E	2e	.	.
2D	[2f	.	.
=17	=17	=17	=17
2F	4f]	1r	0r
.	4e	.	.
2G	1d	.	.
1E	.	1g	.
.	2c#	.	.
=18	=18	=18	=18
0D	1d	1b-	1dd
.	2r	1a	1ff
.	2A	.	.
=19	=19	=19	=19
0r	1c	1g	1ee
.	2d	2f	1dd
.	2B-	2g	.
=20	=20	=20	=20
0r	2A	2a	2cc
.	2B	4g	2dd
.	.	4f	.
.	2c	2e	2ee
.	[2d	2d	[2ff
=21	=21	=21	=21
0r	2d]	2f	4ff]
.	.	.	4ee
.	2G	2g	1dd
.	1A	1e	.
.	.	.	2cc#
=22	=22	=22	=22
1.G	2r	2d	2dd
.	2d	1g	1b
.	2d	.	.
2G	[2e	2g	2b
=23	=23	=23	=23
1.A	4e]	1.c	4cc
.	4d	.	4b
.	4c	.	4a
.	4d	.	4g
.	4e	.	2a
.	4f	.	.
2G	2g	2d	2b-
=24	=24	=24	=24
1F	2c	4f	1a
.	.	4e	.
.	1f	4d	.
.	.	4c	.
1G	.	1B-	1b-
.	2e	.	.
=25	=25	=25	=25
2F	1f	1c	0a
1F	.	.	.
.	2r	1f	.
2F	[2c	.	.
=26	=26	=26	=26
2E	2c]	2g	0r
2F	2c	2a	.
[1G	2.B	[1d	.
.	4A	.	.
=27	=27	=27	=27
2G]	4B	1d]	0r
.	4c	.	.
2F	1d	.	.
1E	.	1g	.
.	2c#	.	.
=28	=28	=28	=28
2D	1d	2f	1r
4D	.	1f	.
4E	.	.	.
4F	1A	.	[1cc
4G	.	.	.
4A	.	2f	.
4B	.	.	.
=29	=29	=29	=29
2c	2r	2e	2cc]
2A	2c	2f	2cc
2.G	1d	[1g	2.b
4F	.	.	4a
=30	=30	=30	=30
2E	2G	2g]	4b
.	.	.	4cc
2D	2A	2f	1dd
2G	2B	1e	.
2A	2A	.	2cc
=31	=31	=31	=31
1D	1A	2d	1ff
.	.	1a	.
[1A	[1c	.	1ee
.	.	2a	.
=32	=32	=32	=32
2A]	2c]	2e	2r
2A	2c	2a	1ee
2E	2B	2g	.
2A	2c	[2a	2ee
=33	=33	=33	=33
0D	1.d	4a]	4ff
.	.	4g	4ee
.	.	4f	4dd
.	.	4e	4cc
.	.	1f	2b
.	2c	.	2a
=34	=34	=34	=34
0E	2B	0e	2g#
.	2A	.	1a
.	1B	.	.
.	.	.	2g#
=35	=35	=35	=35
0A	0c#	0e	0a
==	==	==	==
*-	*-	*-	*-
!!!CDT: 1525/^1526/-1594/2/2
!!!OCY: Italia
!!!AGN: Mass (Paraphrase)
!!!AST: renaissance, vocal
!!!ASW: Antiphon
!!!PWK: Masses, Book 8
!!!RNB: Cadence finals: D
!!!YOR: Le Opere Complete, v. 24, p. 32
!!!YOO: Rome, Italy: Fratelli Scalera
!!!END: 1992//
!!!EED: John Miller
!!!YEC: Copyright 2000, John Miller
!!!YEN: United States of America
!!!YEM: Rights to all derivative electronic formats reserved.
!!!YEM: Refer to licensing agreement for further details.
!!!YEM: This file must be accompanied by the licensing agreement.
!!!YEM: A copy of the licensing agreement may be found at http://www.music-cog.ohio-state.edu/HumdrumDatabases/Palestrina/license.txt
!!!EMD: converted to Humdrum by Bret Aarden
